lib/functional/system&devices/browsers.svg

<svg xmlns="http://www.w3.org/2000/svg" fill="none" stroke="currentColor" aria-hidden="true" viewBox="0 0 32 32"><g id="Icon-Browsers"><g clip-path="url(#clip0_9_1401)"><g id="size=md (32px)"><g id="Browsers"><path id="Vector" stroke-linecap="round" stroke-linejoin="round" stroke-width="2" d="M23 10H5C4.44772 10 4 10.4477 4 11V25C4 25.5523 4.44772 26 5 26H23C23.5523 26 24 25.5523 24 25V11C24 10.4477 23.5523 10 23 10Z"/><path id="Vector_2" stroke-linecap="round" stroke-linejoin="round" stroke-width="2" d="M8 10V7C8 6.73478 8.10536 6.48043 8.29289 6.29289C8.48043 6.10536 8.73478 6 9 6H27C27.2652 6 27.5196 6.10536 27.7071 6.29289C27.8946 6.48043 28 6.73478 28 7V21C28 21.2652 27.8946 21.5196 27.7071 21.7071C27.5196 21.8946 27.2652 22 27 22H24"/><path id="Vector_3" stroke-linecap="round" stroke-linejoin="round" stroke-width="2" d="M4 14H24"/></g></g></g></g><defs><clipPath id="clip0_9_1401"><rect width="32" height="32" fill="white" rx="5"/></clipPath></defs></svg>

<svg xmlns="http://www.w3.org/2000/svg" fill="none" stroke="currentColor" aria-hidden="true" viewBox="0 0 32 32"><g stroke="#101828" stroke-linecap="round" stroke-linejoin="round" stroke-width="2" clip-path="url(#a)"><path d="M23 10H5a1 1 0 0 0-1 1v14a1 1 0 0 0 1 1h18a1 1 0 0 0 1-1V11a1 1 0 0 0-1-1Z"/><path d="M8 10V7a1 1 0 0 1 1-1h18a1 1 0 0 1 1 1v14a1 1 0 0 1-1 1h-3M4 14h20"/></g><defs><clipPath id="a"><rect width="32" height="32" fill="#fff" rx="5"/></clipPath></defs></svg>
